X:1
T:The Band O' Shearers
M:4/4
L:1/8
K:C
 G| A A3 D3 D|A-GA-B c2 A2| G2 G2 C3 C|E-DE-G A3 A| D3 E F2 G2| A2 d2 d2e-d|\
 c2 A2 G3 E| D2 D4 z||
